img/phone-img.svg

<svg width="14" height="15" viewBox="0 0 14 15" fill="none" xmlns="http://www.w3.org/2000/svg">
<g clip-path="url(#clip0)">
<path d="M13.7455 13.0923C13.4909 13.5935 12.9818 13.8441 12.4727 14.0947C11.8364 14.4706 11.3273 14.5959 10.6909 14.5959C9.8 14.5959 8.90909 14.22 8.14545 13.9694C7.50909 13.7188 7 13.4682 6.36364 13.2176C4.58182 12.09 2.54545 10.0853 1.52727 8.45643C1.14545 7.82996 0.890909 7.32878 0.636364 6.70231C0.381818 5.82525 0 5.07349 0 4.07113C0 3.44466 0.127273 2.81819 0.509091 2.19172C0.763636 1.69054 1.01818 1.18936 1.52727 0.938771C1.90909 0.938771 2.54545 0.813477 2.92727 0.813477C3.05455 0.813477 3.05455 0.813477 3.18182 0.813477C3.43636 0.938771 3.56364 1.31465 3.69091 1.56524C3.94545 2.19172 4.32727 2.69289 4.58182 3.31936C4.83636 3.56995 5.09091 3.82054 5.09091 4.07113C5.09091 4.6976 3.30909 5.57466 3.30909 6.07584C3.30909 6.32643 3.56364 6.70231 3.69091 6.9529C4.70909 8.70702 5.98182 9.95997 7.76364 10.9623C8.01818 11.0876 8.4 11.3382 8.65455 11.3382C9.16364 11.3382 10.0545 9.58408 10.6909 9.58408C10.9455 9.58408 11.2 9.83467 11.4545 10.0853C11.9636 10.4611 12.6 10.7117 13.1091 11.0876C13.3636 11.2129 13.7455 11.3382 13.8727 11.5888C13.8727 11.7141 13.8727 11.7141 13.8727 11.8394C14 12.09 13.8727 12.7164 13.7455 13.0923Z" fill="white"/>
</g>
<defs>
<clipPath id="clip0">
<rect width="14" height="13.7824" fill="white" transform="translate(0 0.813477)"/>
</clipPath>
</defs>
</svg>

<svg width="14" height="15" fill="none" xmlns="http://www.w3.org/2000/svg"><g clip-path="url(#clip0)"><path d="M13.745 13.092c-.254.502-.763.752-1.272 1.003-.637.376-1.146.5-1.782.5-.891 0-1.782-.375-2.546-.626-.636-.25-1.145-.5-1.781-.751-1.782-1.128-3.819-3.133-4.837-4.762a11.386 11.386 0 01-.89-1.754C.381 5.825 0 5.073 0 4.072c0-.627.127-1.254.51-1.88.254-.501.508-1.003 1.017-1.253.382 0 1.018-.126 1.4-.126h.255c.254.126.382.502.509.752.254.627.636 1.128.89 1.754.255.251.51.502.51.752 0 .627-1.782 1.504-1.782 2.005 0 .25.255.626.382.877 1.018 1.754 2.29 3.007 4.073 4.01.254.125.636.375.89.375.51 0 1.4-1.754 2.037-1.754.254 0 .509.25.763.501.51.376 1.146.627 1.655 1.003.255.125.636.25.764.5v.251c.127.251 0 .877-.127 1.253z" fill="#fff"/></g><defs><clipPath id="clip0"><path fill="#fff" transform="translate(0 .813)" d="M0 0h14v13.782H0z"/></clipPath></defs></svg>
